svgs/sharp-light/gun-slash.svg

<svg xmlns="http://www.w3.org/2000/svg" viewBox="0 0 640 512"><!--! Font Awesome Pro 6.6.0 by @fontawesome - https://fontawesome.com License - https://fontawesome.com/license (Commercial License) Copyright 2024 Fonticons, Inc. --><path d="M32.4 10L19.9 .1 .1 25.3l12.6 9.9L607.8 502.2l12.6 9.9 19.8-25.2-12.6-9.9L32.4 10zM480 240l6.6 0 4.7-4.7L518.6 208l73.4 0 16 0 0-16 0-112 0-16-16 0-48 0 0-16 0-16-32 0 0 16 0 16L180.1 64l40.5 32L512 96l32 0 32 0 0 80-64 0-6.6 0-4.7 4.7L473.4 208l-110.9 0L403 240l77 0zM255.4 286.5L215 448l-110 0 52-208 39.5 0-40.5-32L132 208l-68 0 0-72.6L32 110.2 32 224l0 16 16 0 76 0L72 448l-8 32 33 0 143 0 42.9-171.7-27.5-21.7z"/></svg>

<svg xmlns="http://www.w3.org/2000/svg" viewBox="0 0 640 512"><!--! Font Awesome Pro 6.4.2 by @fontawesome - https://fontawesome.com License - https://fontawesome.com/license (Commercial License) Copyright 2023 Fonticons, Inc. --><path d="M40.4 18L27.8 8.1 8.1 33.4l12.6 9.8L599.8 494.3l12.6 9.8 19.7-25.2L619.5 469 40.4 18zM480 240h6.6l4.7-4.7L518.6 208H592h16V192 80 64H592 544V48 32H512V48 64H180.1l40.5 32H512h32 32v80H512h-6.6l-4.7 4.7L473.4 208H362.5L403 240h77zM255.4 286.5L215 448H105l52-208h39.5l-40.5-32H132 64V135.4L32 110.2V224v16H48h76L72 448l-8 32H97 240l42.9-171.7-27.5-21.7z"/></svg>
